X:1
T:James Gibb editions
T:Come Thou, O come - Barnby
%%score [ ( 1 2 ) ( 3 4 ) ]
L:1/8
Q:1/4=96
M:2/2
K:Eb
V:1 treble nm="Midi_74"
V:2 treble 
V:3 bass nm="Midi_74"
V:4 bass 
V:1
"^St Anselm\ntr. Gerard Moultrie (1829-85)""^Come Thou, O come""^Joseph Barnby\n(1838-96)""^46. 66. 662" G4 A2 c2 | %1
 B8 || B4 e2 d2 | d3 c c4 || B4 G2 A2 | G3 F E2 |][M:2/2] F2 | G2 G2 G2 ^F2 | G8 || G4 A2 B2 | %10
 B3 A A2 || c2 | B2 G2 E2 F2 | G4 F4 | E8 || A8 | G8 |] %17
V:2
 E4 F2 F2 | F8 || E4 E2 E2 | E3 E E4 || F4 E2 E2 | D2 =B,2 C2 |][M:2/2] C2 | =B,2 D2 E2 C2 | D8 || %9
 =E4 E2 E2 | =E3 F F2 || F2 | B,2 E2 C2 C2 | E4 D4 | E8 || E8 | E8 |] %17
V:3
 B,4 C2 A,2 | A,8 || G,4 A,2 B,2 | B,3 A, A,4 || F,4 B,2 E,2 | G,2 G,2 G,2 |] %6
[M:2/2]"^1. Come Thou, O come:\nSweetest and kindliest,\nGiver of tranquil rest\nUnto the weary soul;\nIn all anxiety\nWith power from heaven on high\nConsole.\n\n2. Come Thou, O come:\nHelp in the hour of need,\nStrength of the broken reed,\nGuide of each lonely one;\nOrphans' and widows' stay,\nWho tread in life's hard way\nAlone." F,2 | %7
 D,2 G,2 G,2 =A,2 | =B,8 || (C2 _B,2-) A,2 G,2 | G,3 A, A,2 || %11
"^3. Come Thou, O come:\nGlorious and shadow-free,\nStar of the stormy sea,\nLight of the tempest-tost;\nHarbour our souls to save\nWhen hope upon the wave\nIs lost.\n\n4. Come Thou, O come:\nJoy in life's narrow path,\nHope in the hour of death,\nCome, blessed Spirit, come;\nLead Thou us tenderly,\nTill we shall find with Tee\nOur home." A,2 | %12
 G,2 B,2 B,2 A,2 | G,4 A,4 | G,8 || C8 | B,8 |] %17
V:4
 E,4 E,2 E,2 | D,8 || E,4 F,2 G,2 | A,3 A, A,4 || D,4 E,2 C,2 | =B,,2 G,,2 C,2 |][M:2/2] A,,2 | %7
 G,,2 =B,,2 C,2 E,2 | G,,8 || C,4 C,2 C,2 | F,3 F, F,2 || D,2 | E,2 E,2 A,,2 A,,2 | B,,4 B,,4 | %14
 E,8 || A,,8 | E,8 |] %17

